img/icons/person.svg

<svg width="20" height="21" viewBox="0 0 20 21" fill="none" xmlns="http://www.w3.org/2000/svg">
<path d="M10 10.5C10.9946 10.5 11.9484 10.1049 12.6517 9.40165C13.3549 8.69839 13.75 7.74456 13.75 6.75C13.75 5.75544 13.3549 4.80161 12.6517 4.09835C11.9484 3.39509 10.9946 3 10 3C9.00544 3 8.05161 3.39509 7.34835 4.09835C6.64509 4.80161 6.25 5.75544 6.25 6.75C6.25 7.74456 6.64509 8.69839 7.34835 9.40165C8.05161 10.1049 9.00544 10.5 10 10.5ZM12.5 6.75C12.5 7.41304 12.2366 8.04893 11.7678 8.51777C11.2989 8.98661 10.663 9.25 10 9.25C9.33696 9.25 8.70107 8.98661 8.23223 8.51777C7.76339 8.04893 7.5 7.41304 7.5 6.75C7.5 6.08696 7.76339 5.45107 8.23223 4.98223C8.70107 4.51339 9.33696 4.25 10 4.25C10.663 4.25 11.2989 4.51339 11.7678 4.98223C12.2366 5.45107 12.5 6.08696 12.5 6.75ZM17.5 16.75C17.5 18 16.25 18 16.25 18H3.75C3.75 18 2.5 18 2.5 16.75C2.5 15.5 3.75 11.75 10 11.75C16.25 11.75 17.5 15.5 17.5 16.75ZM16.25 16.745C16.2487 16.4375 16.0575 15.5125 15.21 14.665C14.395 13.85 12.8612 13 10 13C7.1375 13 5.605 13.85 4.79 14.665C3.9425 15.5125 3.7525 16.4375 3.75 16.745H16.25Z" fill="#FAFAFA"/>
</svg>

<svg width="20" height="21" fill="none" xmlns="http://www.w3.org/2000/svg"><path d="M10 10.5A3.75 3.75 0 1010 3a3.75 3.75 0 000 7.5zm2.5-3.75a2.5 2.5 0 11-5 0 2.5 2.5 0 015 0zm5 10C17.5 18 16.25 18 16.25 18H3.75S2.5 18 2.5 16.75s1.25-5 7.5-5 7.5 3.75 7.5 5zm-1.25-.005c-.001-.308-.192-1.233-1.04-2.08C14.395 13.85 12.861 13 10 13c-2.862 0-4.395.85-5.21 1.665-.848.848-1.038 1.773-1.04 2.08h12.5z" fill="#FAFAFA"/></svg>
